third_party/noto/noto_2/emoji_u1f3aa.svg

<svg enable-background="new 0 0 128 128" viewBox="0 0 128 128" xmlns="http://www.w3.org/2000/svg"><linearGradient id="i" x1="64" x2="64" y1="67.833" y2="122.92" gradientUnits="userSpaceOnUse"><stop stop-color="#F44336" offset="0"/><stop stop-color="#E93C34" offset=".2139"/><stop stop-color="#D32F2F" offset=".5111"/><stop stop-color="#BF2222" offset=".7959"/><stop stop-color="#B71C1C" offset="1"/></linearGradient><path d="M16.05,120.59C16,122.57,18.02,124,20,124h44h44c1.98,0,3.91-1.43,3.95-3.41 C112.5,93.33,120,64,120,64H8C8,64,16.67,95.83,16.05,120.59z" fill="url(#i)"/><radialGradient id="h" cx="63.708" cy="24.673" r="40.309" gradientTransform="matrix(1.0287e-13 1 -1.6627 1.7104e-13 104.73 -39.036)" gradientUnits="userSpaceOnUse"><stop stop-color="#EF5350" offset="0"/><stop stop-color="#F14C45" offset=".2526"/><stop stop-color="#F44336" offset=".5024"/><stop stop-color="#D32F2F" offset="1"/></radialGradient><path d="M104.62,51.36C89.88,43.26,64,24,64,24S38.12,43.26,23.38,51.36C12.58,57.29,4,60.67,4,64h60 h60C124,60.67,115.42,57.29,104.62,51.36z" fill="url(#h)"/><linearGradient id="g" x1="32.5" x2="32.5" y1="64.167" y2="125.94" gradientUnits="userSpaceOnUse"><stop stop-color="#FDD835" offset="0"/><stop stop-color="#F9A825" offset="1"/></linearGradient><path d="m20 64s12 24 8 60h16s4-44-4-60h-20z" fill="url(#g)"/><linearGradient id="f" x1="95.5" x2="95.5" y1="64.167" y2="125.94" gradientUnits="userSpaceOnUse"><stop stop-color="#FDD835" offset="0"/><stop stop-color="#F9A825" offset="1"/></linearGradient><path d="m108 64s-12 24-8 60h-16s-4-44 4-60h20z" fill="url(#f)"/><linearGradient id="e" x1="64" x2="64" y1="64.167" y2="125.94" gradientUnits="userSpaceOnUse"><stop stop-color="#F44336" offset="0"/><stop stop-color="#E93C34" offset=".2003"/><stop stop-color="#D32F2F" offset=".4784"/><stop stop-color="#CB2B2B" offset=".8427"/><stop stop-color="#C62828" offset="1"/></linearGradient><rect x="56" y="64" width="16" height="60" fill="url(#e)"/><radialGradient id="d" cx="62.333" cy="28.333" r="43.402" gradientUnits="userSpaceOnUse"><stop stop-color="#FFEB3B" offset="0"/><stop stop-color="#FEE038" offset=".485"/><stop stop-color="#FDD835" offset=".756"/><stop stop-color="#FBC02D" offset="1"/></radialGradient><path d="M20,64c20-8.36,44-40,44-40S48,60,40,64" fill="url(#d)"/><radialGradient id="c" cx="64" cy="23.5" r="51.4" gradientUnits="userSpaceOnUse"><stop stop-color="#FFEB3B" offset="0"/><stop stop-color="#FEE038" offset=".4994"/><stop stop-color="#FDD835" offset=".7785"/><stop stop-color="#FBC02D" offset="1"/></radialGradient><path d="m108 64c-20-8.36-44-40-44-40s16 36 24 40" fill="url(#c)"/><radialGradient id="b" cx="63.333" cy="28.167" r="45.167" gradientUnits="userSpaceOnUse"><stop stop-color="#FFEB3B" offset="0"/><stop stop-color="#FEE038" offset=".4051"/><stop stop-color="#FDD835" offset=".6315"/><stop stop-color="#FBC02D" offset="1"/></radialGradient><path d="m64 24c0 8-8 40-8 40h16s-8-32-8-40z" fill="url(#b)"/><linearGradient id="a" x1="61.742" x2="36.762" y1="98.95" y2="92.768" gradientUnits="userSpaceOnUse"><stop stop-color="#B71C1C" offset="0"/><stop stop-color="#B71C1C" stop-opacity="0" offset="1"/></linearGradient><path d="M8,64c0,0,8.67,31.83,8.05,56.59C16,122.57,18.02,124,20,124h44V64H8z" fill="url(#a)"/><linearGradient id="o" x1="161.83" x2="138.44" y1="98.549" y2="93.247" gradientTransform="matrix(-1 0 0 1 232 0)" gradientUnits="userSpaceOnUse"><stop stop-color="#B71C1C" offset="0"/><stop stop-color="#B71C1C" stop-opacity="0" offset="1"/></linearGradient><path d="m124 64s-8.67 31.83-8.05 56.59c0.05 1.98-1.97 3.41-3.95 3.41h-44v-60h56z" fill="url(#o)"/><path d="m68 64h-8s0 40-20 60h48c-20-20-20-60-20-60z" fill="#1A237E"/><radialGradient id="n" cx="59.5" cy="94.667" r="32.004" gradientUnits="userSpaceOnUse"><stop stop-color="#E53935" offset="0"/><stop stop-color="#D32F2D" offset=".4022"/><stop stop-color="#C62828" offset=".6912"/><stop stop-color="#C62828" offset="1"/></radialGradient><path d="m64 64h-4s-8 44-28 60h20s12-16 12-60z" fill="url(#n)"/><radialGradient id="m" cx="69" cy="96.667" r="32.668" gradientUnits="userSpaceOnUse"><stop stop-color="#E53935" offset="0"/><stop stop-color="#C62828" offset=".6912"/><stop stop-color="#C62828" offset="1"/></radialGradient><path d="m64 64h4s8 44 28 60h-20s-12-16-12-60z" fill="url(#m)"/><g opacity=".2"><path d="m64 27.73c6.16 4.53 26.51 19.3 39.18 26.26 2.66 1.46 5.2 2.78 7.45 3.94 4.24 2.2 9.5 4.92 10.37 6.28-0.09 2.12-1.54 3.99-3.6 4.59-1.06 0.31-1.86 1.17-2.1 2.25-2.21 10.29-5.96 30.4-6.35 49.48 0 0.11-0.41 0.47-0.95 0.47h-88c-0.46 0-0.85-0.26-0.95-0.39 0.43-17.6-3.72-38.6-6.23-49.57-0.25-1.08-1.07-1.93-2.13-2.22-2.1-0.57-3.59-2.45-3.68-4.6 0.87-1.36 6.12-4.08 10.37-6.28 2.25-1.16 4.79-2.48 7.45-3.94 12.66-6.97 33.01-21.74 39.17-26.27m0-3.73s-25.88 19.26-40.62 27.36c-10.8 5.93-19.38 9.31-19.38 12.64 0 3.69 2.5 6.78 5.89 7.71 2.51 10.96 6.59 31.63 6.15 48.88-0.04 1.98 1.98 3.41 3.96 3.41h88c1.98 0 3.91-1.43 3.95-3.41 0.38-18.71 4.03-38.4 6.28-48.91 3.33-0.97 5.77-4.04 5.77-7.68 0-3.33-8.58-6.71-19.38-12.64-14.74-8.1-40.62-27.36-40.62-27.36z" fill="#424242"/></g><path d="M4,64c0,4.42,3.58,8,8,8s8-3.58,8-8H4z" fill="#B71C1C"/><path d="M40,64c0,4.42,3.58,8,8,8s8-3.58,8-8H40z" fill="#C62828"/><path d="M20,64c0,4.42,4.48,8,10,8s10-3.58,10-8H20z" fill="#F9A825"/><path d="M88,64c0,4.42,4.48,8,10,8s10-3.58,10-8H88z" fill="#F9A825"/><path d="M56,64c0,4.42,3.58,8,8,8s8-3.58,8-8H56z" fill="#FBC02D"/><path d="M72,64c0,4.42,3.58,8,8,8s8-3.58,8-8H72z" fill="#C62828"/><path d="m108 64c0 4.42 3.58 8 8 8s8-3.58 8-8h-16z" fill="#B71C1C"/><radialGradient id="l" cx="69.833" cy="3.8333" r="12.358" gradientUnits="userSpaceOnUse"><stop stop-color="#FDD835" offset="0"/><stop stop-color="#FBC02D" offset="1"/></radialGradient><path d="M64,4v12l16-5.06c0.87-0.32,0.87-1.55,0-1.87L64,4z" fill="url(#l)"/><g opacity=".2"><path d="M65,5.37L79.64,10L65,14.63V5.37 M64,4v12l16-5.06c0.87-0.32,0.87-1.55,0-1.87L64,4L64,4z" fill="#424242"/></g><radialGradient id="k" cx="63.833" cy="4.25" r="14.002" gradientTransform="matrix(1.0287e-13 1 -.4345 4.4691e-14 65.68 -59.583)" gradientUnits="userSpaceOnUse"><stop stop-color="#FFEB3B" offset="0"/><stop stop-color="#FEE038" offset=".3016"/><stop stop-color="#FDD835" offset=".4702"/><stop stop-color="#FBC02D" offset="1"/></radialGradient><path d="m65.5 19.45c0 0.57-0.67 1.03-1.5 1.03s-1.5-0.46-1.5-1.03v-14.42c0-0.57 0.67-1.03 1.5-1.03s1.5 0.46 1.5 1.03v14.42z" fill="url(#k)"/><radialGradient id="j" cx="63.75" cy="18.417" r="7.6956" gradientUnits="userSpaceOnUse"><stop stop-color="#FFEB3B" offset="0"/><stop stop-color="#FEE038" offset=".3893"/><stop stop-color="#FDD835" offset=".6068"/><stop stop-color="#FBC02D" offset="1"/></radialGradient><path d="m68 22c0 2.21-1.79 4-4 4s-4-1.79-4-4 1.79-4 4-4 4 1.79 4 4z" fill="url(#j)"/><g opacity=".2"><path d="m64 5c0.25 0 0.43 0.08 0.5 0.13v13.17c0 0.41 0.25 0.77 0.62 0.93 1.14 0.46 1.88 1.55 1.88 2.77 0 1.65-1.35 3-3 3s-3-1.35-3-3c0-1.22 0.74-2.31 1.88-2.78 0.38-0.15 0.62-0.52 0.62-0.93v-13.16c0.07-0.05 0.25-0.13 0.5-0.13m0-1c-0.83 0-1.5 0.46-1.5 1.03v13.27c-1.46 0.59-2.5 2.02-2.5 3.7 0 2.21 1.79 4 4 4s4-1.79 4-4c0-1.68-1.04-3.11-2.5-3.7v-13.27c0-0.57-0.67-1.03-1.5-1.03z" fill="#424242"/></g></svg>

<svg width="128" height="128" style="enable-background:new 0 0 128 128;" xmlns="http://www.w3.org/2000/svg" xmlns:xlink="http://www.w3.org/1999/xlink">
  <g>
    <linearGradient id="SVGID_1_" gradientUnits="userSpaceOnUse" x1="64" x2="64" y1="67.8333" y2="122.9151">
      <stop offset="0" style="stop-color:#F44336"/>
      <stop offset="0.2139" style="stop-color:#E93C34"/>
      <stop offset="0.5111" style="stop-color:#D32F2F"/>
      <stop offset="0.7959" style="stop-color:#BF2222"/>
      <stop offset="1" style="stop-color:#B71C1C"/>
    </linearGradient>
    <path d="M16.05,120.59C16,122.57,18.02,124,20,124h44h44c1.98,0,3.91-1.43,3.95-3.41 C112.5,93.33,120,64,120,64H8C8,64,16.67,95.83,16.05,120.59z" style="fill:url(#SVGID_1_);"/>
    <radialGradient id="SVGID_2_" cx="63.7082" cy="24.6726" gradientTransform="matrix(4.499940e-11 1 -1.6627 7.482082e-11 104.7315 -39.0356)" gradientUnits="userSpaceOnUse" r="40.3093">
      <stop offset="0" style="stop-color:#EF5350"/>
      <stop offset="0.2526" style="stop-color:#F14C45"/>
      <stop offset="0.5024" style="stop-color:#F44336"/>
      <stop offset="1" style="stop-color:#D32F2F"/>
    </radialGradient>
    <path d="M104.62,51.36C89.88,43.26,64,24,64,24S38.12,43.26,23.38,51.36C12.58,57.29,4,60.67,4,64h60 h60C124,60.67,115.42,57.29,104.62,51.36z" style="fill:url(#SVGID_2_);"/>
    <linearGradient id="SVGID_3_" gradientUnits="userSpaceOnUse" x1="32.5" x2="32.5" y1="64.1667" y2="125.9369">
      <stop offset="0" style="stop-color:#FDD835"/>
      <stop offset="1" style="stop-color:#F9A825"/>
    </linearGradient>
    <path d="M20,64c0,0,12,24,8,60h16c0,0,4-44-4-60H20z" style="fill:url(#SVGID_3_);"/>
    <linearGradient id="SVGID_4_" gradientUnits="userSpaceOnUse" x1="95.5" x2="95.5" y1="64.1667" y2="125.9369">
      <stop offset="0" style="stop-color:#FDD835"/>
      <stop offset="1" style="stop-color:#F9A825"/>
    </linearGradient>
    <path d="M108,64c0,0-12,24-8,60H84c0,0-4-44,4-60H108z" style="fill:url(#SVGID_4_);"/>
    <linearGradient id="SVGID_5_" gradientUnits="userSpaceOnUse" x1="64" x2="64" y1="64.1667" y2="125.9369">
      <stop offset="0" style="stop-color:#F44336"/>
      <stop offset="0.2003" style="stop-color:#E93C34"/>
      <stop offset="0.4784" style="stop-color:#D32F2F"/>
      <stop offset="0.8427" style="stop-color:#CB2B2B"/>
      <stop offset="1" style="stop-color:#C62828"/>
    </linearGradient>
    <rect height="60" style="fill:url(#SVGID_5_);" width="16" x="56" y="64"/>
    <radialGradient id="SVGID_6_" cx="62.3333" cy="28.3333" gradientUnits="userSpaceOnUse" r="43.4016">
      <stop offset="0" style="stop-color:#FFEB3B"/>
      <stop offset="0.485" style="stop-color:#FEE038"/>
      <stop offset="0.756" style="stop-color:#FDD835"/>
      <stop offset="1" style="stop-color:#FBC02D"/>
    </radialGradient>
    <path d="M20,64c20-8.36,44-40,44-40S48,60,40,64" style="fill:url(#SVGID_6_);"/>
    <radialGradient id="SVGID_7_" cx="64" cy="23.5" gradientUnits="userSpaceOnUse" r="51.4004">
      <stop offset="0" style="stop-color:#FFEB3B"/>
      <stop offset="0.4994" style="stop-color:#FEE038"/>
      <stop offset="0.7785" style="stop-color:#FDD835"/>
      <stop offset="1" style="stop-color:#FBC02D"/>
    </radialGradient>
    <path d="M108,64c-20-8.36-44-40-44-40s16,36,24,40" style="fill:url(#SVGID_7_);"/>
    <radialGradient id="SVGID_8_" cx="63.3333" cy="28.1667" gradientUnits="userSpaceOnUse" r="45.167">
      <stop offset="0" style="stop-color:#FFEB3B"/>
      <stop offset="0.4051" style="stop-color:#FEE038"/>
      <stop offset="0.6315" style="stop-color:#FDD835"/>
      <stop offset="1" style="stop-color:#FBC02D"/>
    </radialGradient>
    <path d="M64,24c0,8-8,40-8,40h8h8C72,64,64,32,64,24z" style="fill:url(#SVGID_8_);"/>
    <linearGradient id="SVGID_9_" gradientUnits="userSpaceOnUse" x1="61.7422" x2="36.7619" y1="98.9501" y2="92.7681">
      <stop offset="0" style="stop-color:#B71C1C"/>
      <stop offset="1" style="stop-color:#B71C1C;stop-opacity:0"/>
    </linearGradient>
    <path d="M8,64c0,0,8.67,31.83,8.05,56.59C16,122.57,18.02,124,20,124h44V64H8z" style="fill:url(#SVGID_9_);"/>
    <linearGradient id="SVGID_10_" gradientTransform="matrix(-1 0 0 1 232 0)" gradientUnits="userSpaceOnUse" x1="161.833" x2="138.4406" y1="98.5492" y2="93.2473">
      <stop offset="0" style="stop-color:#B71C1C"/>
      <stop offset="1" style="stop-color:#B71C1C;stop-opacity:0"/>
    </linearGradient>
    <path d="M124,64c0,0-8.67,31.83-8.05,56.59c0.05,1.98-1.97,3.41-3.95,3.41H68V64H124z" style="fill:url(#SVGID_10_);"/>
    <path d="M68,64h-4h-4c0,0,0,40-20,60h24h24C68,104,68,64,68,64z" style="fill:#1A237E;"/>
    <radialGradient id="SVGID_11_" cx="59.5" cy="94.6667" gradientUnits="userSpaceOnUse" r="32.0039">
      <stop offset="0" style="stop-color:#E53935"/>
      <stop offset="0.4022" style="stop-color:#D32F2D"/>
      <stop offset="0.6912" style="stop-color:#C62828"/>
      <stop offset="1" style="stop-color:#C62828"/>
    </radialGradient>
    <path d="M64,64h-4c0,0-8,44-28,60h20C52,124,64,108,64,64z" style="fill:url(#SVGID_11_);"/>
    <radialGradient id="SVGID_12_" cx="69" cy="96.6667" gradientUnits="userSpaceOnUse" r="32.6684">
      <stop offset="0" style="stop-color:#E53935"/>
      <stop offset="0.6912" style="stop-color:#C62828"/>
      <stop offset="1" style="stop-color:#C62828"/>
    </radialGradient>
    <path d="M64,64h4c0,0,8,44,28,60H76C76,124,64,108,64,64z" style="fill:url(#SVGID_12_);"/>
    <g style="opacity:0.2;">
      <path d="M64,27.73c6.16,4.53,26.51,19.3,39.18,26.26c2.66,1.46,5.2,2.78,7.45,3.94 c4.24,2.2,9.5,4.92,10.37,6.28c-0.09,2.12-1.54,3.99-3.6,4.59c-1.06,0.31-1.86,1.17-2.1,2.25c-2.21,10.29-5.96,30.4-6.35,49.48 c0,0.11-0.41,0.47-0.95,0.47H64H20c-0.46,0-0.85-0.26-0.95-0.39c0.43-17.6-3.72-38.6-6.23-49.57c-0.25-1.08-1.07-1.93-2.13-2.22 c-2.1-0.57-3.59-2.45-3.68-4.6c0.87-1.36,6.12-4.08,10.37-6.28c2.25-1.16,4.79-2.48,7.45-3.94C37.49,47.03,57.84,32.26,64,27.73 M64,24c0,0-25.88,19.26-40.62,27.36C12.58,57.29,4,60.67,4,64c0,3.69,2.5,6.78,5.89,7.71c2.51,10.96,6.59,31.63,6.15,48.88 C16,122.57,18.02,124,20,124h44h44c1.98,0,3.91-1.43,3.95-3.41c0.38-18.71,4.03-38.4,6.28-48.91c3.33-0.97,5.77-4.04,5.77-7.68 c0-3.33-8.58-6.71-19.38-12.64C89.88,43.26,64,24,64,24L64,24z" style="fill:#424242;"/>
    </g>
    <path d="M4,64c0,4.42,3.58,8,8,8s8-3.58,8-8H4z" style="fill:#B71C1C;"/>
    <path d="M40,64c0,4.42,3.58,8,8,8s8-3.58,8-8H40z" style="fill:#C62828;"/>
    <path d="M20,64c0,4.42,4.48,8,10,8s10-3.58,10-8H20z" style="fill:#F9A825;"/>
    <path d="M88,64c0,4.42,4.48,8,10,8s10-3.58,10-8H88z" style="fill:#F9A825;"/>
    <path d="M56,64c0,4.42,3.58,8,8,8s8-3.58,8-8H56z" style="fill:#FBC02D;"/>
    <path d="M72,64c0,4.42,3.58,8,8,8s8-3.58,8-8H72z" style="fill:#C62828;"/>
    <path d="M108,64c0,4.42,3.58,8,8,8s8-3.58,8-8H108z" style="fill:#B71C1C;"/>
    <radialGradient id="SVGID_13_" cx="69.8333" cy="3.8333" gradientUnits="userSpaceOnUse" r="12.3581">
      <stop offset="0" style="stop-color:#FDD835"/>
      <stop offset="1" style="stop-color:#FBC02D"/>
    </radialGradient>
    <path d="M64,4v12l16-5.06c0.87-0.32,0.87-1.55,0-1.87L64,4z" style="fill:url(#SVGID_13_);"/>
    <g style="opacity:0.2;">
      <path d="M65,5.37L79.64,10L65,14.63V5.37 M64,4v12l16-5.06c0.87-0.32,0.87-1.55,0-1.87L64,4L64,4z" style="fill:#424242;"/>
    </g>
    <radialGradient id="SVGID_14_" cx="63.8333" cy="4.25" gradientTransform="matrix(4.499940e-11 1 -0.4345 1.955019e-11 65.6798 -59.5833)" gradientUnits="userSpaceOnUse" r="14.0022">
      <stop offset="0" style="stop-color:#FFEB3B"/>
      <stop offset="0.3016" style="stop-color:#FEE038"/>
      <stop offset="0.4702" style="stop-color:#FDD835"/>
      <stop offset="1" style="stop-color:#FBC02D"/>
    </radialGradient>
    <path d="M65.5,19.45c0,0.57-0.67,1.03-1.5,1.03l0,0c-0.83,0-1.5-0.46-1.5-1.03V5.03 C62.5,4.46,63.17,4,64,4l0,0c0.83,0,1.5,0.46,1.5,1.03V19.45z" style="fill:url(#SVGID_14_);"/>
    <radialGradient id="SVGID_15_" cx="63.75" cy="18.4167" gradientUnits="userSpaceOnUse" r="7.6956">
      <stop offset="0" style="stop-color:#FFEB3B"/>
      <stop offset="0.3893" style="stop-color:#FEE038"/>
      <stop offset="0.6068" style="stop-color:#FDD835"/>
      <stop offset="1" style="stop-color:#FBC02D"/>
    </radialGradient>
    <circle cx="64" cy="22" r="4" style="fill:url(#SVGID_15_);"/>
    <g style="opacity:0.2;">
      <path d="M64,5c0.25,0,0.43,0.08,0.5,0.13V18.3c0,0.41,0.25,0.77,0.62,0.93C66.26,19.69,67,20.78,67,22 c0,1.65-1.35,3-3,3c-1.65,0-3-1.35-3-3c0-1.22,0.74-2.31,1.88-2.78c0.38-0.15,0.62-0.52,0.62-0.93V5.13C63.57,5.08,63.75,5,64,5 M64,4c-0.83,0-1.5,0.46-1.5,1.03V18.3C61.04,18.89,60,20.32,60,22c0,2.21,1.79,4,4,4c2.21,0,4-1.79,4-4c0-1.68-1.04-3.11-2.5-3.7 V5.03C65.5,4.46,64.83,4,64,4L64,4z" style="fill:#424242;"/>
    </g>
  </g>
</svg>
